RestoDelMundo/Paises Bajos/Otras Categorias/Helmond Sport.svg

<svg xmlns="http://www.w3.org/2000/svg" viewBox="0 0 612 792"><path d="M307.5 113.162 60.352 254.819V537.96L307.5 679.618 554.647 537.96V254.819Z"/><path fill="#fff" d="M71.508 261.284v270.212L307.5 666.759l235.992-135.263V261.284L307.5 126.021Z"/><path fill="#ed1c24" d="M307.5 147.447 90.098 272.056v248.668L307.5 645.332l217.402-124.608V272.056Z"/><path fill="#fff" d="M156.571 250.993v161.561h265.582v93.272H158.867v35.96h299.562V376.595H192.846v-89.641H456.14v-35.961"/><path d="M338.096 304.001v72.594h-67.285v-72.594h-36.272v164.24h36.272v-55.686h67.285v55.686h36.276v-164.24z"/></svg>

<svg enable-background="new 0 0 612 792" viewBox="0 0 612 792" xmlns="http://www.w3.org/2000/svg"><path d="M 307.5 113.162 L 60.352 254.819 L 60.352 537.96 L 307.5 679.618 L 554.647 537.96 L 554.647 254.819 Z"/><path d="M 71.508 261.284 L 71.508 531.496 L 307.5 666.759 L 543.492 531.496 L 543.492 261.284 L 307.5 126.021 Z" fill="#fff"/><path d="M 307.5 147.447 L 90.098 272.056 L 90.098 520.724 L 307.5 645.332 L 524.902 520.724 L 524.902 272.056 Z" fill="#ed1c24"/><path d="M 156.571 250.993 v 161.561 c 0 0 234.101 0 265.582 0 c 0 22.34 0 70.932 0 93.272 c -31.748 0 -263.286 0 -263.286 0 v 35.96 h 299.562 V 376.595 c 0 0 -234.1 0 -265.583 0 c 0 -21.995 0 -67.65 0 -89.641 c 31.748 0 263.294 0 263.294 0 v -35.961" fill="#fff"/><path d="M 338.096 304.001 L 338.096 376.595 L 270.811 376.595 L 270.811 304.001 L 234.539 304.001 L 234.539 468.241 L 270.811 468.241 L 270.811 412.555 L 338.096 412.555 L 338.096 468.241 L 374.372 468.241 L 374.372 304.001 L 338.096 304.001"/></svg>
